svg/fluentui-system-icons/ic_fluent_diamond_48_filled.svg

<svg width="48" height="48" viewBox="0 0 48 48" fill="none" xmlns="http://www.w3.org/2000/svg">
<path d="M5.02513 26.4746C3.65829 25.1078 3.65829 22.8917 5.02513 21.5249L21.5249 5.02513C22.8917 3.65829 25.1078 3.65829 26.4746 5.02513L42.9743 21.5249C44.3412 22.8917 44.3412 25.1078 42.9743 26.4746L26.4746 42.9743C25.1078 44.3412 22.8917 44.3412 21.5249 42.9743L5.02513 26.4746Z" fill="#212121"/>
</svg>

<svg xmlns="http://www.w3.org/2000/svg" width="48" height="48"><path d="M5.025 26.475a3.5 3.5 0 0 1 0-4.95l16.5-16.5a3.5 3.5 0 0 1 4.95 0l16.5 16.5a3.5 3.5 0 0 1 0 4.95l-16.5 16.5a3.5 3.5 0 0 1-4.95 0l-16.5-16.5Z"/></svg>
